X: 33374
T: Queen Of The West, The
R: hornpipe
M: 4/4
K: Dmajor
uFE|:D>FAF DFA,F|"A"EGAG EGA,G|"D"FAdF "D#dim"GBec|"A"Adfd cAGC|
"D"DFAF DFA,F|"A"EGAG EGA,G|"D"FAdA "A"Ggec|1 "D"d2d2d2 FE:|2 "D"d2d2d2 ucd||
|:"A"ecAc EAce|"D"fdAd FAdf|"G".g2fg "D"efdf|"E"(3edc (3dcB "A" ABcd|
ecAc EAce|"D"fdAd FAdf|"G"gbag "A"fedc|1 "D"d2d2d2 ucd:|2 "D"d2d2d2 uFE||

